icons/svgs/chart-pie-simple-outline.svg

<svg width="24" height="24" viewBox="0 0 24 24" fill="none" xmlns="http://www.w3.org/2000/svg">
<path d="M21.3359 11.375H12.625V2.66406C12.625 2.3125 12.8984 2 13.25 2C18.0547 2 22 5.94531 22 10.75C22 11.1016 21.6875 11.375 21.3359 11.375ZM8.875 13.25V5.55469C5.94531 6.60938 3.875 9.38281 3.875 12.625C3.875 16.7656 7.23438 20.125 11.375 20.125C14.6172 20.125 17.3906 18.0547 18.4453 15.125H10.75C9.69531 15.125 8.875 14.3047 8.875 13.25ZM10.75 4.61719V11.375V13.25H12.625H19.3828C20.0859 13.25 20.6719 13.875 20.5156 14.5781C19.6172 18.8359 15.8672 22 11.375 22C6.17969 22 2 17.8203 2 12.625C2 8.13281 5.16406 4.38281 9.42188 3.48438C10.125 3.32812 10.75 3.91406 10.75 4.61719Z" fill="black"/>
</svg>

<svg xmlns="http://www.w3.org/2000/svg" width="24" height="24" fill="currentColor" class="icon-chart-pie-simple-outline" viewBox="0 0 24 24">
  <mask id="a" width="20" height="20" x="2" y="2" maskUnits="userSpaceOnUse" style="mask-type:alpha">
    <path d="M21.336 11.375h-8.711v-8.71c0-.353.273-.665.625-.665C18.055 2 22 5.945 22 10.75c0 .352-.312.625-.664.625M8.875 13.25V5.555c-2.93 1.054-5 3.828-5 7.07 0 4.14 3.36 7.5 7.5 7.5 3.242 0 6.016-2.07 7.07-5H10.75a1.85 1.85 0 0 1-1.875-1.875m1.875-8.633v8.633h8.633c.703 0 1.289.625 1.133 1.328C19.617 18.836 15.867 22 11.375 22A9.353 9.353 0 0 1 2 12.625c0-4.492 3.164-8.242 7.422-9.14.703-.157 1.328.43 1.328 1.132"/>
  </mask>
  <g mask="url(#a)">
    <path d="M0 0h24v24H0z"/>
  </g>
</svg>
